icons/circle/48/synaptic.svg

<svg xmlns="http://www.w3.org/2000/svg" xmlns:xlink="http://www.w3.org/1999/xlink" viewBox="0 0 48 48">
 <defs>
  <linearGradient id="linearGradient3764" x1="1" x2="47" gradientUnits="userSpaceOnUse" gradientTransform="matrix(0,-1,1,0,-1.5e-6,47.999998)">
   <stop style="stop-color:#6398c9;stop-opacity:1"/>
   <stop offset="1" style="stop-color:#72a2cf;stop-opacity:1"/>
  </linearGradient>
 </defs>
 <g>
  <path d="m 36.31 5 c 5.859 4.062 9.688 10.831 9.688 18.5 c 0 12.426 -10.07 22.5 -22.5 22.5 c -7.669 0 -14.438 -3.828 -18.5 -9.688 c 1.037 1.822 2.306 3.499 3.781 4.969 c 4.085 3.712 9.514 5.969 15.469 5.969 c 12.703 0 23 -10.298 23 -23 c 0 -5.954 -2.256 -11.384 -5.969 -15.469 c -1.469 -1.475 -3.147 -2.744 -4.969 -3.781 z m 4.969 3.781 c 3.854 4.113 6.219 9.637 6.219 15.719 c 0 12.703 -10.297 23 -23 23 c -6.081 0 -11.606 -2.364 -15.719 -6.219 c 4.16 4.144 9.883 6.719 16.219 6.719 c 12.703 0 23 -10.298 23 -23 c 0 -6.335 -2.575 -12.06 -6.719 -16.219 z" style="opacity:0.05"/>
  <path d="m 41.28 8.781 c 3.712 4.085 5.969 9.514 5.969 15.469 c 0 12.703 -10.297 23 -23 23 c -5.954 0 -11.384 -2.256 -15.469 -5.969 c 4.113 3.854 9.637 6.219 15.719 6.219 c 12.703 0 23 -10.298 23 -23 c 0 -6.081 -2.364 -11.606 -6.219 -15.719 z" style="opacity:0.1"/>
  <path d="m 31.25 2.375 c 8.615 3.154 14.75 11.417 14.75 21.13 c 0 12.426 -10.07 22.5 -22.5 22.5 c -9.708 0 -17.971 -6.135 -21.12 -14.75 a 23 23 0 0 0 44.875 -7 a 23 23 0 0 0 -16 -21.875 z" style="opacity:0.2"/>
 </g>
 <g>
  <path d="m 24 1 c 12.703 0 23 10.297 23 23 c 0 12.703 -10.297 23 -23 23 -12.703 0 -23 -10.297 -23 -23 0 -12.703 10.297 -23 23 -23 z" style="fill:url(#linearGradient3764);fill-opacity:1"/>
 </g>
 <g>
  <g>
   <g transform="translate(1,1)">
    <g style="opacity:0.1">
     <!-- color: #72a2cf -->
     <g>
      <path d="m 16 13 c -1 0 -1 0.461 -1.25 1 l -1.75 7 l -0.004 0 l 0 15.11 c 0 0.492 0.395 0.887 0.887 0.887 l 22.23 0 c 0.492 0 0.887 -0.395 0.887 -0.887 l 0 -15.11 l -1.75 -7 c -0.25 -0.48 -0.25 -1 -1.25 -1 l -18 0 z" transform="translate(-1,-1)" style="fill:#000;fill-opacity:1;stroke:none;fill-rule:nonzero"/>
      <path d="m 21.5 12 l 5.102 0 l 0.398 13 l -3 -3 l -3 3 m 0.5 -13" style="fill:#000;fill-opacity:0.8;stroke:none;fill-rule:nonzero"/>
      <use xlink:href="#SVGCleanerId_0"/>
     </g>
    </g>
   </g>
  </g>
 </g>
 <g>
  <g>
   <!-- color: #72a2cf -->
   <g>
    <path d="M 15 12 C 14 12 14 12.461 13.75 13 L 12 20 L 24 23 L 36 20 L 34.25 13 C 34 12.52 34 12 33 12 L 15 12 z " style="fill:#f4d653;fill-opacity:1;stroke:none;fill-rule:nonzero"/>
    <path d="m 11.996 20 l 0 15.11 c 0 0.492 0.395 0.887 0.887 0.887 l 22.23 0 c 0.492 0 0.887 -0.395 0.887 -0.887 l 0 -15.11 l -24 0 z" style="fill:#f4ba3d;fill-opacity:1;stroke:none;fill-rule:nonzero"/>
    <path d="m 21.5 12 l -0.5 13 l 3 -3 l 3 3 l -0.398 -13 l -5.102 0 z" style="fill:#fff4d6;fill-opacity:0.8;stroke:none;fill-rule:nonzero"/>
    <path d="m 21.19 20 l -0.188 5 l 3 -3 l 3 3 l -0.156 -5 m -5.656 0" id="SVGCleanerId_0" style="fill:#000;fill-opacity:0.051;stroke:none;fill-rule:nonzero"/>
   </g>
  </g>
 </g>
 <g>
  <path d="m 40.03 7.531 c 3.712 4.084 5.969 9.514 5.969 15.469 0 12.703 -10.297 23 -23 23 c -5.954 0 -11.384 -2.256 -15.469 -5.969 4.178 4.291 10.01 6.969 16.469 6.969 c 12.703 0 23 -10.298 23 -23 0 -6.462 -2.677 -12.291 -6.969 -16.469 z" style="opacity:0.1"/>
 </g>
</svg>

<svg xmlns="http://www.w3.org/2000/svg" xmlns:xlink="http://www.w3.org/1999/xlink" viewBox="0 0 48 48">
  <defs>
    <linearGradient id="a" x1="1" x2="47" gradientUnits="userSpaceOnUse" gradientTransform="rotate(-90 24 24)">
      <stop stop-color="#6398c9"/>
      <stop offset="1" stop-color="#72a2cf"/>
    </linearGradient>
  </defs>
  <path d="M36.31 5c5.859 4.062 9.688 10.831 9.688 18.5 0 12.426-10.07 22.5-22.5 22.5-7.669 0-14.438-3.828-18.5-9.688a23.24 23.24 0 0 0 3.781 4.969 22.923 22.923 0 0 0 15.469 5.969c12.703 0 23-10.298 23-23a22.92 22.92 0 0 0-5.969-15.469A23.216 23.216 0 0 0 36.31 5zm4.969 3.781A22.911 22.911 0 0 1 47.498 24.5c0 12.703-10.297 23-23 23a22.909 22.909 0 0 1-15.719-6.219C12.939 45.425 18.662 48 24.998 48c12.703 0 23-10.298 23-23 0-6.335-2.575-12.06-6.719-16.219z" opacity=".05"/>
  <path d="M41.28 8.781a22.923 22.923 0 0 1 5.969 15.469c0 12.703-10.297 23-23 23A22.92 22.92 0 0 1 8.78 41.281 22.911 22.911 0 0 0 24.499 47.5c12.703 0 23-10.298 23-23A22.909 22.909 0 0 0 41.28 8.781z" opacity=".1"/>
  <path d="M31.25 2.375C39.865 5.529 46 13.792 46 23.505c0 12.426-10.07 22.5-22.5 22.5-9.708 0-17.971-6.135-21.12-14.75a23 23 0 0 0 44.875-7 23 23 0 0 0-16-21.875z" opacity=".2"/>
  <path d="M24 1c12.703 0 23 10.297 23 23S36.703 47 24 47 1 36.703 1 24 11.297 1 24 1z" fill="url(#a)"/>
  <g transform="translate(1 1)" opacity=".1">
    <path d="M15 12c-1 0-1 .461-1.25 1L12 20h-.004v15.11c0 .492.395.887.887.887h22.23A.884.884 0 0 0 36 35.11V20l-1.75-7C34 12.52 34 12 33 12H15z"/>
    <path d="M21.5 12h5.102L27 25l-3-3-3 3m.5-13" fill-opacity=".8"/>
    <use xlink:href="#b"/>
  </g>
  <g>
    <path d="M15 12c-1 0-1 .461-1.25 1L12 20l12 3 12-3-1.75-7C34 12.52 34 12 33 12H15z" fill="#f4d653"/>
    <path d="M11.996 20v15.11c0 .492.395.887.887.887h22.23A.884.884 0 0 0 36 35.11V20H12z" fill="#f4ba3d"/>
    <path d="M21.5 12L21 25l3-3 3 3-.398-13H21.5z" fill="#fff4d6" fill-opacity=".8"/>
    <path d="M21.19 20l-.188 5 3-3 3 3-.156-5m-5.656 0" id="b" fill-opacity=".051"/>
  </g>
  <g>
    <path d="M40.03 7.531A22.922 22.922 0 0 1 45.999 23c0 12.703-10.297 23-23 23A22.92 22.92 0 0 1 7.53 40.031C11.708 44.322 17.54 47 23.999 47c12.703 0 23-10.298 23-23 0-6.462-2.677-12.291-6.969-16.469z" opacity=".1"/>
  </g>
</svg>
